X:215
T:Polka pique de Corrze
A:Massif Central
O:France
M:2/4
L:1/16
Q:1/4=80
K:G
dDcD dDcD|ABcB AFAF|dDcD dDcD|ABcB A4:|
|:BDGD F>G|ABAG FGFc|BDGD F>G|ABAF G4:||
